X: 1
T: the Drunken Piper
T: Highland Rory
B: RSDS-13
B: Scots Guards
Z: John Chambers <jc:trillian.mit.edu>
N: Can also be accompanied by A major chords without changing the melody.
M: 4/4
L: 1/8
K: BDor
|: "Bm"~B2Bc f3g | fece f2a2 | "A"~A2Ac e3f | ecAc "F7"e2f2 |
|  "Bm"~B2Bc f3g | fece f2b2 | "A"~a2fa fafe | "Bm"c2B2 B4 :|
f2 \
[| "Bm"b4 f2b2 | fefg "(E)"a2b2 | "A"~A2Ac e3f | ecAc "F7"e2f2 |
|  "Bm"b4 f2b2 | fefg "(E)"a2b2 | "A"a2fa fafe | "Bm"c2B2 B2f2 ||
|| "Bm"b4 f2b2 | fefg "(E)"a2b2 | "A"~A2Ac e3f | ecAc "F7"e2f2 |
|  "Bm"~B2Bc f3g | fece f2b2 | "A"~a2fa fafe | "Bm"c2B2 B4 |]
